lib/flags/bi-burundi.svg

<svg xmlns="http://www.w3.org/2000/svg" fill="none" aria-hidden="true" viewBox="0 0 42 30"><g id="Country=BI - Burundi, Size=sm (36x24)" filter="url(#filter0_dd_91_29622)"><g clip-path="url(#clip0_91_29622)"><g id="flag"><mask id="mask0_91_29622" width="36" height="24" x="3" y="2" maskUnits="userSpaceOnUse" style="mask-type:alpha"><rect id="mask" width="36" height="24" x="3" y="2" fill="white"/></mask><g mask="url(#mask0_91_29622)"><g id="contents"><rect id="background" width="36" height="24" x="3" y="2" fill="#5EAA22" rx="2"/><g id="Combined Shape"><mask id="path-4-outside-1_91_29622" width="54" height="30" x="-6" y="-1" fill="black" maskUnits="userSpaceOnUse"><rect width="54" height="30" x="-6" y="-1" fill="white"/><path fill-rule="evenodd" d="M21 14L39 2H3.00001L21 14ZM21 14L3.00001 26H39L21 14Z" clip-rule="evenodd"/></mask><path fill="#DD2C2B" fill-rule="evenodd" d="M21 14L39 2H3.00001L21 14ZM21 14L3.00001 26H39L21 14Z" clip-rule="evenodd"/><path fill="white" d="M39 2L40.3867 4.08013L47.2569 -0.5H39V2ZM3 2V-0.5H-5.25694L1.61325 4.08013L3 2ZM3 26L1.61325 23.9199L-5.25694 28.5H3V26ZM39 26V28.5H47.2569L40.3867 23.9199L39 26ZM37.6132 -0.0801256L19.6133 11.9199L22.3868 16.0801L40.3867 4.08013L37.6132 -0.0801256ZM3 4.5H39V-0.5H3V4.5ZM22.3868 11.9199L4.38675 -0.0801258L1.61325 4.08013L19.6133 16.0801L22.3868 11.9199ZM19.6133 11.9199L1.61325 23.9199L4.38675 28.0801L22.3868 16.0801L19.6133 11.9199ZM3 28.5H39V23.5H3V28.5ZM40.3867 23.9199L22.3868 11.9199L19.6133 16.0801L37.6132 28.0801L40.3867 23.9199Z" mask="url(#path-4-outside-1_91_29622)"/></g><path id="Oval 12" fill="white" fill-rule="evenodd" d="M21 20C24.7279 20 27.75 17.3137 27.75 14C27.75 10.6863 24.7279 8 21 8C17.2721 8 14.25 10.6863 14.25 14C14.25 17.3137 17.2721 20 21 20Z" clip-rule="evenodd"/><path id="Star" fill="#DD2C2B" fill-rule="evenodd" stroke="#5EAA22" stroke-width="0.25" d="M20.3586 12.3873L19.0513 12.4L19.7173 11.4L19.0513 10.4L20.3586 10.4128L20.9998 9.40002L21.6411 10.4128L22.9484 10.4L22.2823 11.4L22.9484 12.4L21.6411 12.3873L20.9998 13.4L20.3586 12.3873Z" clip-rule="evenodd"/><path id="Star_2" fill="#DD2C2B" fill-rule="evenodd" stroke="#5EAA22" stroke-width="0.25" d="M17.5461 16.4874L16.2388 16.5001L16.9048 15.5001L16.2388 14.5001L17.5461 14.5128L18.1873 13.5001L18.8286 14.5128L20.1359 14.5001L19.4698 15.5001L20.1359 16.5001L18.8286 16.4874L18.1873 17.5001L17.5461 16.4874Z" clip-rule="evenodd"/><path id="Star_3" fill="#DD2C2B" fill-rule="evenodd" stroke="#5EAA22" stroke-width="0.25" d="M23.1711 16.4874L21.8638 16.5001L22.5298 15.5001L21.8638 14.5001L23.1711 14.5128L23.8123 13.5001L24.4536 14.5128L25.7609 14.5001L25.0948 15.5001L25.7609 16.5001L24.4536 16.4874L23.8123 17.5001L23.1711 16.4874Z" clip-rule="evenodd"/></g></g></g></g></g><defs><filter id="filter0_dd_91_29622" width="42" height="30" x="0" y="0" color-interpolation-filters="sRGB" filterUnits="userSpaceOnUse"><feFlood flood-opacity="0" result="BackgroundImageFix"/><feColorMatrix in="SourceAlpha" result="hardAlpha" values="0 0 0 0 0 0 0 0 0 0 0 0 0 0 0 0 0 0 127 0"/><feOffset dy="1"/><feGaussianBlur stdDeviation="1"/><feColorMatrix values="0 0 0 0 0.0627451 0 0 0 0 0.0941176 0 0 0 0 0.156863 0 0 0 0.06 0"/><feBlend in2="BackgroundImageFix" result="effect1_dropShadow_91_29622"/><feColorMatrix in="SourceAlpha" result="hardAlpha" values="0 0 0 0 0 0 0 0 0 0 0 0 0 0 0 0 0 0 127 0"/><feOffset dy="1"/><feGaussianBlur stdDeviation="1.5"/><feColorMatrix values="0 0 0 0 0.0627451 0 0 0 0 0.0941176 0 0 0 0 0.156863 0 0 0 0.1 0"/><feBlend in2="effect1_dropShadow_91_29622" result="effect2_dropShadow_91_29622"/><feBlend in="SourceGraphic" in2="effect2_dropShadow_91_29622" result="shape"/></filter><clipPath id="clip0_91_29622"><rect width="36" height="24" x="3" y="2" fill="white" rx="2"/></clipPath></defs></svg>

<svg xmlns="http://www.w3.org/2000/svg" fill="none" aria-hidden="true" viewBox="0 0 42 30"><g filter="url(#a)"><g clip-path="url(#b)"><mask id="c" width="36" height="24" x="3" y="2" maskUnits="userSpaceOnUse" style="mask-type:alpha"><path fill="#fff" d="M3 2h36v24H3z"/></mask><g mask="url(#c)"><rect width="36" height="24" x="3" y="2" fill="#5EAA22" rx="2"/><mask id="d" width="54" height="30" x="-6" y="-1" fill="#000" maskUnits="userSpaceOnUse"><path fill="#fff" d="M-6-1h54v30H-6z"/><path fill-rule="evenodd" d="M21 14 39 2H3l18 12Zm0 0L3 26h36L21 14Z" clip-rule="evenodd"/></mask><path fill="#DD2C2B" fill-rule="evenodd" d="M21 14 39 2H3l18 12Zm0 0L3 26h36L21 14Z" clip-rule="evenodd"/><path fill="#fff" d="m39 2 1.387 2.08 6.87-4.58H39V2ZM3 2V-.5h-8.257l6.87 4.58L3 2Zm0 24-1.387-2.08-6.87 4.58H3V26Zm36 0v2.5h8.257l-6.87-4.58L39 26ZM37.613-.08l-18 12 2.774 4.16 18-12-2.774-4.16ZM3 4.5h36v-5H3v5Zm19.387 7.42-18-12-2.774 4.16 18 12 2.774-4.16Zm-2.774 0-18 12 2.774 4.16 18-12-2.774-4.16ZM3 28.5h36v-5H3v5Zm37.387-4.58-18-12-2.774 4.16 18 12 2.774-4.16Z" mask="url(#d)"/><path fill="#fff" fill-rule="evenodd" d="M21 20c3.728 0 6.75-2.686 6.75-6S24.728 8 21 8s-6.75 2.686-6.75 6 3.022 6 6.75 6Z" clip-rule="evenodd"/><path fill="#DD2C2B" fill-rule="evenodd" stroke="#5EAA22" stroke-width=".25" d="m20.359 12.387-1.308.013.666-1-.666-1 1.308.013.64-1.013.642 1.013 1.307-.013-.666 1 .666 1-1.307-.013L21 13.4l-.641-1.013Zm-2.813 4.1-1.307.013.666-1-.666-1 1.307.013.641-1.013.642 1.013 1.307-.013-.666 1 .666 1-1.307-.013-.642 1.013-.64-1.013Zm5.625 0-1.307.013.666-1-.666-1 1.307.013.641-1.013.642 1.013 1.307-.013-.666 1 .666 1-1.307-.013-.642 1.013-.64-1.013Z" clip-rule="evenodd"/></g></g></g><defs><clipPath id="b"><rect width="36" height="24" x="3" y="2" fill="#fff" rx="2"/></clipPath><filter id="a" width="42" height="30" x="0" y="0" color-interpolation-filters="sRGB" filterUnits="userSpaceOnUse"><feFlood flood-opacity="0" result="BackgroundImageFix"/><feColorMatrix in="SourceAlpha" result="hardAlpha" values="0 0 0 0 0 0 0 0 0 0 0 0 0 0 0 0 0 0 127 0"/><feOffset dy="1"/><feGaussianBlur stdDeviation="1"/><feColorMatrix values="0 0 0 0 0.0627451 0 0 0 0 0.0941176 0 0 0 0 0.156863 0 0 0 0.06 0"/><feBlend in2="BackgroundImageFix" result="effect1_dropShadow_91_29622"/><feColorMatrix in="SourceAlpha" result="hardAlpha" values="0 0 0 0 0 0 0 0 0 0 0 0 0 0 0 0 0 0 127 0"/><feOffset dy="1"/><feGaussianBlur stdDeviation="1.5"/><feColorMatrix values="0 0 0 0 0.0627451 0 0 0 0 0.0941176 0 0 0 0 0.156863 0 0 0 0.1 0"/><feBlend in2="effect1_dropShadow_91_29622" result="effect2_dropShadow_91_29622"/><feBlend in="SourceGraphic" in2="effect2_dropShadow_91_29622" result="shape"/></filter></defs></svg>
